X:191
T:Miss McLeod's
R:Reel
O:Scotland, Ireland
S:1 Richard Darsie's web page
B:O'Neill's 1418
B:Roche 1 n148
S:2 Roche 1 n148
Z:Transcription, arrangement(?), chords:Mike Long
M:C|
L:1/8
K:A
"A"A2a2 fefa|c2cB cdcB|A2a2 fefa|\
"E"B2BA BdcB|"A"A2a2 fefa|c2cB c2e2|
"D"fgfe cefg|"E"afec BdcB:|\
|:"A"ABcd ecAB|\
c2cB cdcB|A2cA eAcA|
"E"B2BA BdcB|"A"ABcd ecAB|c2cB c2e2|\
"D"fgfe cefg|"E"afec BdcB:|
P:Arr. Roche
"A"A2ag fefa|c2{d}cB cdcB|A2ag fefa|"E"bagf edcB|\
"A"A2ag fefa|cdcB c2e2|
"D"fgfe cefg|"E"afec BdcB:|\
|:"A"A2cA eAcA|c2{d}cB cdcB|A2cA eAcA|
"E"B2{c}BA BdcB|\
"A"A2cA eAcA|cdcB c2e2|"D"fgfe cefg|"E"afec BdcB:|
